**harm	**harte	**timestamp	**phrase	**leadinstrument	**kern
*M4/4	*M4/4	*	*	*	*
*F:	*F:	*	*	*	*F:
1r;	N	0	.	r	1r;
1r;	N	0.372	.	r	1r;
=1	=1	=1	=1	=1	=1
*>A_intro	*>A_intro	*>A_intro	*>A_intro	*>A_intro	*>A_intro
1Im7	F:7	58.863	newline	r	1F 1a 1cc 1ee
=2	=2	=2	=2	=2	=2
1IVm7	B-:7	60.169	.	r	1B- 1dd 1ff 1aa
=3	=3	=3	=3	=3	=3
1Im7	F:7	61.475	.	r	1F 1a 1cc 1ee
=4	=4	=4	=4	=4	=4
1IVm7	B-:7	62.781	.	r	1B- 1dd 1ff 1aa
=5	=5	=5	=5	=5	=5
1Im7	F:7	64.088	newline	r	1F 1a 1cc 1ee
=6	=6	=6	=6	=6	=6
1IVm7	B-:7	65.357	.	r	1B- 1dd 1ff 1aa
=7	=7	=7	=7	=7	=7
1Im7	F:7	66.627	.	r	1F 1a 1cc 1ee
=8	=8	=8	=8	=8	=8
1IVm7	B-:7	67.897	.	r	1B- 1dd 1ff 1aa
=9	=9	=9	=9	=9	=9
*>A_verse	*>A_verse	*>A_verse	*>A_verse	*>A_verse	*>A_verse
1Im7	F:7	69.167	newline	voice	1F 1a 1cc 1ee
=10	=10	=10	=10	=10	=10
1IVm7	B-:7	70.425	.	voice	1B- 1dd 1ff 1aa
=11	=11	=11	=11	=11	=11
1Im7	F:7	71.682	.	voice	1F 1a 1cc 1ee
=12	=12	=12	=12	=12	=12
1IVm7	B-:7	72.94	.	voice	1B- 1dd 1ff 1aa
=13	=13	=13	=13	=13	=13
1Im7	F:7	74.197	newline	voice	1F 1a 1cc 1ee
=14	=14	=14	=14	=14	=14
1IVm7	B-:7	75.471	.	voice	1B- 1dd 1ff 1aa
=15	=15	=15	=15	=15	=15
1Im7	F:7	76.744	.	voice	1F 1a 1cc 1ee
=16	=16	=16	=16	=16	=16
1IVm7	B-:7	78.018	.	voice	1B- 1dd 1ff 1aa
=17	=17	=17	=17	=17	=17
1Im7	F:7	79.291	newline	voice	1F 1a 1cc 1ee
=18	=18	=18	=18	=18	=18
1IVm7	B-:7	80.56	.	voice	1B- 1dd 1ff 1aa
=19	=19	=19	=19	=19	=19
1Im7	F:7	81.828	.	voice	1F 1a 1cc 1ee
=20	=20	=20	=20	=20	=20
1IVm7	B-:7	83.096	.	voice	1B- 1dd 1ff 1aa
=21	=21	=21	=21	=21	=21
1Im7	F:7	84.365	newline	voice	1F 1a 1cc 1ee
=22	=22	=22	=22	=22	=22
1IVm7	B-:7	85.649	.	voice	1B- 1dd 1ff 1aa
=23	=23	=23	=23	=23	=23
1Im7	F:7	86.932	.	voice	1F 1a 1cc 1ee
=24	=24	=24	=24	=24	=24
1IVm7	B-:7	88.216	.	voice	1B- 1dd 1ff 1aa
=25	=25	=25	=25	=25	=25
*>B_chorus	*>B_chorus	*>B_chorus	*>B_chorus	*>B_chorus	*>B_chorus
1Im7	F:7	89.5	newline	voice	1F 1a 1cc 1ee
=26	=26	=26	=26	=26	=26
1Im7	F:7	90.788	.	voice	1F 1a 1cc 1ee
=27	=27	=27	=27	=27	=27
1Im7	F:7	92.075	.	voice	1F 1a 1cc 1ee
=28	=28	=28	=28	=28	=28
1Im7	F:7	93.363	.	voice	1F 1a 1cc 1ee
=29	=29	=29	=29	=29	=29
1Im7	F:7	94.651	newline	voice	1F 1a 1cc 1ee
=30	=30	=30	=30	=30	=30
1Im7	F:7	95.958	.	voice	1F 1a 1cc 1ee
=31	=31	=31	=31	=31	=31
1Im7	F:7	97.265	.	voice	1F 1a 1cc 1ee
=32	=32	=32	=32	=32	=32
1Im7	F:7	98.572	.	voice	1F 1a 1cc 1ee
=33	=33	=33	=33	=33	=33
1Im7	F:7	99.879	newline	voice	1F 1a 1cc 1ee
=34	=34	=34	=34	=34	=34
1Im7	F:7	101.184	.	voice	1F 1a 1cc 1ee
=35	=35	=35	=35	=35	=35
1Im7	F:7	102.488	.	voice	1F 1a 1cc 1ee
=36	=36	=36	=36	=36	=36
1Im7	F:7	103.793	.	voice	1F 1a 1cc 1ee
=37	=37	=37	=37	=37	=37
1Im7	F:7	105.097	newline	voice	1F 1a 1cc 1ee
=38	=38	=38	=38	=38	=38
1Im7	F:7	106.394	.	voice	1F 1a 1cc 1ee
=39	=39	=39	=39	=39	=39
1Im7	F:7	107.691	.	voice	1F 1a 1cc 1ee
=40	=40	=40	=40	=40	=40
1Im7	F:7	108.988	.	voice	1F 1a 1cc 1ee
=41	=41	=41	=41	=41	=41
*>A_verse	*>A_verse	*>A_verse	*>A_verse	*>A_verse	*>A_verse
1Im7	F:7	110.285	newline	voice	1F 1a 1cc 1ee
=42	=42	=42	=42	=42	=42
1IVm7	B-:7	111.574	.	voice	1B- 1dd 1ff 1aa
=43	=43	=43	=43	=43	=43
1Im7	F:7	112.862	.	voice	1F 1a 1cc 1ee
=44	=44	=44	=44	=44	=44
1IVm7	B-:7	114.151	.	voice	1B- 1dd 1ff 1aa
=45	=45	=45	=45	=45	=45
1Im7	F:7	115.439	newline	voice	1F 1a 1cc 1ee
=46	=46	=46	=46	=46	=46
1IVm7	B-:7	116.715	.	voice	1B- 1dd 1ff 1aa
=47	=47	=47	=47	=47	=47
1Im7	F:7	117.99	.	voice	1F 1a 1cc 1ee
=48	=48	=48	=48	=48	=48
1IVm7	B-:7	119.266	.	voice	1B- 1dd 1ff 1aa
=49	=49	=49	=49	=49	=49
1Im7	F:7	120.542	newline	voice	1F 1a 1cc 1ee
=50	=50	=50	=50	=50	=50
1IVm7	B-:7	121.838	.	voice	1B- 1dd 1ff 1aa
=51	=51	=51	=51	=51	=51
1Im7	F:7	123.133	.	voice	1F 1a 1cc 1ee
=52	=52	=52	=52	=52	=52
1IVm7	B-:7	124.429	.	voice	1B- 1dd 1ff 1aa
=53	=53	=53	=53	=53	=53
1Im7	F:7	125.725	newline	voice	1F 1a 1cc 1ee
=54	=54	=54	=54	=54	=54
1IVm7	B-:7	127.004	.	voice	1B- 1dd 1ff 1aa
=55	=55	=55	=55	=55	=55
1Im7	F:7	128.284	.	voice	1F 1a 1cc 1ee
=56	=56	=56	=56	=56	=56
1IVm7	B-:7	129.563	.	voice	1B- 1dd 1ff 1aa
=57	=57	=57	=57	=57	=57
*>B_chorus	*>B_chorus	*>B_chorus	*>B_chorus	*>B_chorus	*>B_chorus
1Im7	F:7	130.843	newline	trumpet	1F 1a 1cc 1ee
=58	=58	=58	=58	=58	=58
1Im7	F:7	132.168	.	trumpet	1F 1a 1cc 1ee
=59	=59	=59	=59	=59	=59
1Im7	F:7	133.494	.	trumpet	1F 1a 1cc 1ee
=60	=60	=60	=60	=60	=60
1Im7	F:7	134.819	.	trumpet	1F 1a 1cc 1ee
=61	=61	=61	=61	=61	=61
1Im7	F:7	136.144	newline	trumpet	1F 1a 1cc 1ee
=62	=62	=62	=62	=62	=62
1Im7	F:7	137.464	.	trumpet	1F 1a 1cc 1ee
=63	=63	=63	=63	=63	=63
1Im7	F:7	138.784	.	trumpet	1F 1a 1cc 1ee
=64	=64	=64	=64	=64	=64
1Im7	F:7	140.104	.	trumpet	1F 1a 1cc 1ee
=65	=65	=65	=65	=65	=65
1Im7	F:7	141.424	newline	trumpet	1F 1a 1cc 1ee
=66	=66	=66	=66	=66	=66
1Im7	F:7	142.738	.	trumpet	1F 1a 1cc 1ee
=67	=67	=67	=67	=67	=67
1Im7	F:7	144.052	.	trumpet	1F 1a 1cc 1ee
=68	=68	=68	=68	=68	=68
1Im7	F:7	145.367	.	trumpet	1F 1a 1cc 1ee
=69	=69	=69	=69	=69	=69
1Im7	F:7	146.681	newline	trumpet	1F 1a 1cc 1ee
=70	=70	=70	=70	=70	=70
1Im7	F:7	147.997	.	trumpet	1F 1a 1cc 1ee
=71	=71	=71	=71	=71	=71
1Im7	F:7	149.313	.	trumpet	1F 1a 1cc 1ee
=72	=72	=72	=72	=72	=72
1Im7	F:7	150.629	.	trumpet	1F 1a 1cc 1ee
=73	=73	=73	=73	=73	=73
*>A_verse	*>A_verse	*>A_verse	*>A_verse	*>A_verse	*>A_verse
1Im7	F:7	151.945	newline	voice	1F 1a 1cc 1ee
=74	=74	=74	=74	=74	=74
1IVm7	B-:7	153.222	.	voice	1B- 1dd 1ff 1aa
=75	=75	=75	=75	=75	=75
1Im7	F:7	154.5	.	voice	1F 1a 1cc 1ee
=76	=76	=76	=76	=76	=76
1IVm7	B-:7	155.777	.	voice	1B- 1dd 1ff 1aa
=77	=77	=77	=77	=77	=77
1Im7	F:7	157.054	newline	voice	1F 1a 1cc 1ee
=78	=78	=78	=78	=78	=78
1IVm7	B-:7	158.353	.	voice	1B- 1dd 1ff 1aa
=79	=79	=79	=79	=79	=79
1Im7	F:7	159.651	.	voice	1F 1a 1cc 1ee
=80	=80	=80	=80	=80	=80
1IVm7	B-:7	160.949	.	voice	1B- 1dd 1ff 1aa
=81	=81	=81	=81	=81	=81
1Im7	F:7	162.247	newline	voice	1F 1a 1cc 1ee
=82	=82	=82	=82	=82	=82
1IVm7	B-:7	163.561	.	voice	1B- 1dd 1ff 1aa
=83	=83	=83	=83	=83	=83
1Im7	F:7	164.875	.	voice	1F 1a 1cc 1ee
=84	=84	=84	=84	=84	=84
1IVm7	B-:7	166.189	.	voice	1B- 1dd 1ff 1aa
=85	=85	=85	=85	=85	=85
1Im7	F:7	167.503	newline	voice	1F 1a 1cc 1ee
=86	=86	=86	=86	=86	=86
1IVm7	B-:7	168.783	.	voice	1B- 1dd 1ff 1aa
=87	=87	=87	=87	=87	=87
1Im7	F:7	170.063	.	voice	1F 1a 1cc 1ee
=88	=88	=88	=88	=88	=88
1IVm7	B-:7	171.343	.	voice	1B- 1dd 1ff 1aa
=89	=89	=89	=89	=89	=89
*>B_chorus	*>B_chorus	*>B_chorus	*>B_chorus	*>B_chorus	*>B_chorus
1Im7	F:7	172.622	newline	voice	1F 1a 1cc 1ee
=90	=90	=90	=90	=90	=90
1Im7	F:7	173.931	.	voice	1F 1a 1cc 1ee
=91	=91	=91	=91	=91	=91
1Im7	F:7	175.24	.	voice	1F 1a 1cc 1ee
=92	=92	=92	=92	=92	=92
1Im7	F:7	176.549	.	voice	1F 1a 1cc 1ee
=93	=93	=93	=93	=93	=93
1Im7	F:7	177.857	newline	voice	1F 1a 1cc 1ee
=94	=94	=94	=94	=94	=94
1Im7	F:7	179.199	.	voice	1F 1a 1cc 1ee
=95	=95	=95	=95	=95	=95
1Im7	F:7	180.541	.	voice	1F 1a 1cc 1ee
=96	=96	=96	=96	=96	=96
1Im7	F:7	181.883	.	voice	1F 1a 1cc 1ee
=97	=97	=97	=97	=97	=97
1Im7	F:7	183.224	newline	voice	1F 1a 1cc 1ee
=98	=98	=98	=98	=98	=98
1Im7	F:7	184.548	.	voice	1F 1a 1cc 1ee
=99	=99	=99	=99	=99	=99
1Im7	F:7	185.871	.	voice	1F 1a 1cc 1ee
=100	=100	=100	=100	=100	=100
1Im7	F:7	187.194	.	voice	1F 1a 1cc 1ee
=101	=101	=101	=101	=101	=101
1Im7	F:7	188.517	newline	voice	1F 1a 1cc 1ee
=102	=102	=102	=102	=102	=102
1Im7	F:7	189.827	.	voice	1F 1a 1cc 1ee
=103	=103	=103	=103	=103	=103
1Im7	F:7	191.137	.	voice	1F 1a 1cc 1ee
=104	=104	=104	=104	=104	=104
1Im7	F:7	192.447	.	voice	1F 1a 1cc 1ee
=105	=105	=105	=105	=105	=105
*>A_verse	*>A_verse	*>A_verse	*>A_verse	*>A_verse	*>A_verse
1Im7	F:7	193.757	newline	voice	1F 1a 1cc 1ee
=106	=106	=106	=106	=106	=106
1IVm7	B-:7	195.054	.	voice	1B- 1dd 1ff 1aa
=107	=107	=107	=107	=107	=107
1Im7	F:7	196.352	.	voice	1F 1a 1cc 1ee
=108	=108	=108	=108	=108	=108
1IVm7	B-:7	197.65	.	voice	1B- 1dd 1ff 1aa
=109	=109	=109	=109	=109	=109
1Im7	F:7	198.948	newline	voice	1F 1a 1cc 1ee
=110	=110	=110	=110	=110	=110
1IVm7	B-:7	200.259	.	voice	1B- 1dd 1ff 1aa
=111	=111	=111	=111	=111	=111
1Im7	F:7	201.57	.	voice	1F 1a 1cc 1ee
=112	=112	=112	=112	=112	=112
1IVm7	B-:7	202.881	.	voice	1B- 1dd 1ff 1aa
=113	=113	=113	=113	=113	=113
1Im7	F:7	204.192	newline	voice	1F 1a 1cc 1ee
=114	=114	=114	=114	=114	=114
1IVm7	B-:7	205.499	.	voice	1B- 1dd 1ff 1aa
=115	=115	=115	=115	=115	=115
1Im7	F:7	206.807	.	voice	1F 1a 1cc 1ee
=116	=116	=116	=116	=116	=116
1IVm7	B-:7	208.114	.	voice	1B- 1dd 1ff 1aa
=117	=117	=117	=117	=117	=117
1Im7	F:7	209.421	newline	voice	1F 1a 1cc 1ee
=118	=118	=118	=118	=118	=118
1IVm7	B-:7	210.72	.	voice	1B- 1dd 1ff 1aa
=119	=119	=119	=119	=119	=119
1Im7	F:7	212.018	.	voice	1F 1a 1cc 1ee
=120	=120	=120	=120	=120	=120
1IVm7	B-:7	213.316	.	voice	1B- 1dd 1ff 1aa
=121	=121	=121	=121	=121	=121
*>_fadeout	*>_fadeout	*>_fadeout	*>_fadeout	*>_fadeout	*>_fadeout
1Im7	F:7	214.614	newline	voice	1F 1a 1cc 1ee
=122	=122	=122	=122	=122	=122
1IVm7	B-:7	215.524	.	voice	1B- 1dd 1ff 1aa
=123	=123	=123	=123	=123	=123
1Im7	F:7	216.433	.	voice	1F 1a 1cc 1ee
=124	=124	=124	=124	=124	=124
1IVm7	B-:7	217.343	.	voice	1B- 1dd 1ff 1aa
1r;	N	218.253	.	r	1r;
*-	*-	*-	*-	*-	*-
!!!OTL: It's Your Thing
!!!COC: The Isley Brothers
!!!BillboardChartDate: 1969/06/07
!!!BillboardPeak: 2
!!!BillboardWeeksOnChart: 14
!!!SampleTargetRank: 19
!!!SampleActualRank: 19
!!!SampleID#: 0391
!!!RDF**harmony: **recip + pitch class of root + harmonic quality
!!!RDF**harte: Chris Harte's syntax, used by MIREX
!!!RDF**phrase: newline = linebreak in original McGill transcription
!!!RDF**timestamp: McGill audio timestamp in seconds
!!!RDF**leadinstrument: original McGill primary instrumentation annotation
!!!RDT: 2017/01/12/
!!!ENC: Nathaniel Condit-Schultz
!!!EST: Awating manual error checking and editing.
